X:1
T:Title
%%score { 1 | 2 }
L:1/8
Q:1/4=90
M:6/8
K:Bb
V:1 treble nm="Grand Piano"
V:2 bass 
V:1
 [DF][DF][DF] [DF][DF][DF] | [DF][DB][Ec] [Fd]3 | [Fd][Ge][Fd] c2 F | cdc [DB]2 [DF] | %4
w: Haldor~Lillenas * * * * *||||
 [DF][DF][DF] [DF][DF][DF] | [DF][DB][Ec] [Fd]3 | [Fc][F=B][Fc] [Fd]2 [Fc] | %7
w: |||
[M:13/16] [CFA][A,F][CFA][B,=EG]-<[B,EG]F3/2 |[M:3/4] FA ce dc | [DB][Bd] [Gd] [Fd]3 | FA ce dc | %11
w: ||||
 [DB][Bd] [Gd] [Fd]3 | G^F GB AG | F=E F [Fd]3 | [Ff][Ff] [Ge][Gd] [Fd][Ec] | [DB]6 |] %16
w: |||||
V:2
 [B,,B,][B,,B,][B,,B,] [B,,B,][B,,B,][B,,B,] | [B,,B,][B,,B,][B,,B,] [B,,B,]3 | %2
 [B,,B,][B,,B,][B,,B,] [F,A,F]2 [F,A,] | [F,A,E][F,A,F][F,A,E] [B,,B,]2 [B,,B,] | %4
 [B,,B,][B,,B,][B,,B,] [B,,B,][B,,B,][B,,B,] | [B,,B,][B,,B,][B,,B,] [B,,B,]3 | %6
 [C,A,][C,_A,][C,=A,] [C,B,]2 [C,A,] |[M:13/16] C,B,,C,C,-<C,[F,A,]3/2 | %8
[M:3/4] [F,A,E][F,CE] [F,A,E][F,A,E] [F,A,E][F,A,E] | [C,B,][B,,F,] [B,,F,] [B,,B,]3 | %10
 [E,A,E][F,CE] [F,A,E][F,A,E] [F,A,E][F,A,E] | [B,,B,][B,,F,] [B,,F,] [B,,B,]3 | %12
 [E,B,E][E,A,E] [E,B,E][=E,G,_D] [E,A,D][E,B,D] | [F,B,D][^F,B,_D] [=F,B,=D] [B,,B,]3 | %14
 [D,B,][D,B,] [E,B,][F,B,] [F,B,][F,A,] | [B,,B,]6 |] %16

